packages/foundations/assets/icons/functional/images/security/key_32.svg

<svg width="32" height="32" viewBox="0 0 32 32" fill="none" xmlns="http://www.w3.org/2000/svg">
<g clip-path="url(#clip0_187_263)">
<path fill-rule="evenodd" clip-rule="evenodd" d="M24.3648 1.99912L28.7128 2.01112C29.4388 2.10212 30.0008 2.72112 30.0008 3.47212L29.9878 7.82912C29.9458 8.14812 29.7998 8.44612 29.5698 8.67612L28.3988 9.83312C28.2178 9.97612 28.0048 10.0741 27.7768 10.1201L26.1378 10.4471L25.7608 12.2721C25.5938 12.7631 25.1768 13.1351 24.6588 13.2391L23.0148 13.5681L22.6418 15.3791C22.5698 15.5981 22.4468 15.7991 22.2828 15.9631L19.3658 18.8831C20.1718 21.8961 19.3388 25.1531 17.0778 27.4141C13.6288 30.8631 8.03577 30.8631 4.58677 27.4141C1.13677 23.9641 1.13677 18.3721 4.58677 14.9221C6.84977 12.6591 10.1088 11.8291 13.1188 12.6351L23.4698 2.30312C23.7248 2.10712 24.0398 1.99912 24.3648 1.99912ZM24.6008 4.00012L13.7158 14.8651L12.6018 14.5671C12.0248 14.4121 11.4298 14.3341 10.8328 14.3341C9.00777 14.3341 7.29177 15.0451 6.00077 16.3361C3.33677 19.0001 3.33677 23.3351 6.00077 25.9991C7.29177 27.2901 9.00777 28.0011 10.8328 28.0011C12.6568 28.0011 14.3728 27.2901 15.6638 25.9991C17.3848 24.2801 18.0618 21.7501 17.4338 19.4001L17.1358 18.2851L20.7448 14.6721L21.3228 11.8651L23.9098 11.3501L24.4468 8.74512L27.2118 8.19412L27.9888 7.42612L27.9998 4.00912L24.6008 4.00012ZM12.3937 19.6065C13.2557 20.4685 13.2557 21.8675 12.3937 22.7295C11.5317 23.5915 10.1327 23.5915 9.27067 22.7295C8.40867 21.8675 8.40867 20.4685 9.27067 19.6065C10.1327 18.7445 11.5317 18.7445 12.3937 19.6065Z" fill="#1A1C1F"/>
</g>
<defs>
<clipPath id="clip0_187_263">
<rect width="32" height="32" fill="white"/>
</clipPath>
</defs>
</svg>

<svg xmlns="http://www.w3.org/2000/svg" width="32" height="32" fill="none"><g clip-path="url(#a)"><path fill="#1A1C1F" fill-rule="evenodd" d="m24.365 2 4.348.011c.726.091 1.288.71 1.288 1.461l-.013 4.357a1.47 1.47 0 0 1-.418.847l-1.171 1.157a1.5 1.5 0 0 1-.622.287l-1.64.327-.376 1.825a1.47 1.47 0 0 1-1.102.967l-1.644.33-.373 1.81c-.072.22-.195.42-.36.584l-2.916 2.92a8.833 8.833 0 1 1-6.247-6.248l10.35-10.332A1.47 1.47 0 0 1 24.366 2m.236 2L13.716 14.865l-1.114-.298a6.8 6.8 0 0 0-1.77-.233 6.8 6.8 0 0 0-4.831 2.002A6.84 6.84 0 0 0 6 26a6.8 6.8 0 0 0 4.832 2.002c1.824 0 3.54-.71 4.83-2.002a6.85 6.85 0 0 0 1.77-6.599l-.297-1.115 3.609-3.613.578-2.807 2.587-.515.537-2.605 2.765-.55.777-.769.01-3.417zM12.394 19.607a2.209 2.209 0 1 1-3.125 3.123 2.209 2.209 0 0 1 3.125-3.123" clip-rule="evenodd"/></g><defs><clipPath id="a"><path fill="#fff" d="M0 0h32v32H0z"/></clipPath></defs></svg>
